svg/FoundationIcons/fi-bold.svg

<svg xmlns="http://www.w3.org/2000/svg" viewBox="0 0 100 100" enable-background="new 0 0 100 100"><path d="m62.73 49.11c5.347-1.103 9.76-5.94 9.76-12.985 0-7.553-5.517-14.428-16.295-14.428h-27.18c-1.438 0-2.604 1.166-2.604 2.604v51.4c0 1.438 1.166 2.604 2.604 2.604h28.12c10.863 0 16.464-6.79 16.464-15.361.0001-7.04-4.752-12.9-10.863-13.833m-24.272-16.804h15.11c4.074 0 6.62 2.461 6.62 5.94 0 3.649-2.546 5.941-6.62 5.941h-15.11v-11.881m15.615 35.39h-15.615v-12.9h15.616c4.668 0 7.214 2.886 7.214 6.45 0 4.074-2.716 6.45-7.215 6.45"/></svg>

<?xml version="1.0" encoding="utf-8"?>
<!-- Generator: Adobe Illustrator 17.0.0, SVG Export Plug-In . SVG Version: 6.00 Build 0)  -->
<!DOCTYPE svg PUBLIC "-//W3C//DTD SVG 1.1//EN" "http://www.w3.org/Graphics/SVG/1.1/DTD/svg11.dtd">
<svg version="1.1" id="Layer_1" xmlns="http://www.w3.org/2000/svg" xmlns:xlink="http://www.w3.org/1999/xlink" x="0px" y="0px"
	 width="100px" height="100px" viewBox="0 0 100 100" enable-background="new 0 0 100 100" xml:space="preserve">
<g>
	<path d="M62.73,49.109c5.347-1.103,9.76-5.94,9.76-12.985c0-7.553-5.517-14.428-16.295-14.428H29.011
		c-1.438,0-2.604,1.166-2.604,2.604v51.399c0,1.438,1.166,2.604,2.604,2.604h28.118c10.863,0,16.464-6.79,16.464-15.361
		C73.594,55.899,68.841,50.042,62.73,49.109z M38.458,32.305h15.107c4.074,0,6.62,2.461,6.62,5.94c0,3.649-2.546,5.941-6.62,5.941
		H38.458V32.305z M54.073,67.695H38.458v-12.9h15.616c4.668,0,7.214,2.886,7.214,6.45C61.288,65.319,58.572,67.695,54.073,67.695z"
		/>
</g>
</svg>
